!!!OTL: IN DES GARTENS DUNKLER LAUBE
!!!ARE: Europa, Mitteleuropa, Deutschland; France, Elsass
!!!SCT: E0112D
!!!YEM: Copyright 1995, estate of Helmut Schaffrath.
**kern
*ICvox
*Ivox
*M3/4
*k[b-e-]
*B-:
{8.f
16g
=1
8f
8b-
4b-
8.d
16d
=2
8d
8f
4f}
{8e-
8d
=3
8e-
8g
4b-
8.a
16cc
=4
4b-
4r}
{8f
8f
=5
4ee-
4cc
8.ff
16ee-
=6
4dd
4b-}
{8f
8f
=7
8g
8cc
4cc
8.a
16cc
=8
4b-
4r}
==
!!!AGN: erzaehlendes Volks - Lied, Sage, Liebe, Leid, Tod, Ballade ?
!!!ONB: ESAC (Essen Associative Code) Database: ERK1
!!!AMT: simple triple
!!!AIN: vox
!!!EED: Helmut Schaffrath
!!!EEV: 1.0
*-
